X: 37845
T: Sophie's Lullaby
R: barndance
M: 4/4
K: Eminor
|:G2 GF E2 D2|B,2 D2 EF E2|B2 BA G2 Bd|g2 a2 b2 b2|
g2 gf e2 d2|B2 BA Bd d2|G2 GF E2 D2|B,2 D2 EF E2:|
|:B2 BA G2 Bd|g2 f2 e2 e2|b2 ba g2 e2|d2 A2 Bc B2|
d2 dB A2 G2|F2 A2 D2 EF|G2 GF E2 D2|B,2 D2 EF E2:|

